<?xml version="1.0"?>
<VTKFile type="StructuredGrid" version="0.1" byte_order="LittleEndian">
  <StructuredGrid WholeExtent="0 1 0 1 0 1">
    <Piece Extent="0 1 0 1 0 1">
      <PointData Scalars="temperature">
        <DataArray type="Float32" Name="temperature" NumberOfComponents="1" format="ascii">
          10 11 12 13 14 15 16 17
        </DataArray>
      </PointData>
      <CellData Scalars="region">
        <DataArray type="Int32" Name="region" NumberOfComponents="1" format="ascii">42</DataArray>
      </CellData>
      <Points>
        <DataArray type="Float32" NumberOfComponents="3" format="ascii">
          0 0 0   2 0 0   0 1 0   2 1 0
          0 0 3   2 0 3   0 1 3   2 1 3
        </DataArray>
      </Points>
    </Piece>
  </StructuredGrid>
</VTKFile>
